X:25
T:PEGDRBY5- The Dandy, O
S:from O'Farrell's Pocket Companion, last part, c 1810
Q:1/4=40
L:1/4
M:2/4
K:D
A/|A/d/d/d/ d/c/B/A/|dd/e/ d/c/B/A/|A/d/d/c/ d/f/a/f/|\
e/c/AA3/2f/|g/e/f/g/ af3/4e/4|d/B/A/G/ G/F/G/A/|\
B/c/d/B/ e/c/A/G/|F/A/dd3/2/::A/|F/A/d/e/d ((3A/B/c/)|\
B/d/GG3/2B/|e/g/(f/a/) (g/f/)e/d/|c/e/AA3/2g/|\
f/e/f/g/ a/f/e/d/|d/B/A/G/ (G/F/)G/A/|B/c/d/B/ e/c/A/G/|\
Add3/2|]

